X: 1
T: Ben's Brogues
Z: fiddlinggrapefruit
S: https://thesession.org/tunes/15495#setting29015
R: jig
M: 6/8
L: 1/8
K: Gmaj
G,3 G,B,C | DGG GAB | G,B,/2A,/2G, G,B,D | EDB, DB,A, |
G,3 G,A,B, | DB,D GAB | cdc BAG |1 AGE DB,G :|2 BGE DB,D ||
||: E3 ~B3 | EBE FED | ~E3 EDE | GFE DB,D |
(E3 E)DE | GDG BGB | ded cBA | BAG A^FD :|
||: GBd dBA | GBd d2B | G3 GBd | eAB cBA |
GBd dBd | dBd dBd | edB dcA |1 BGE DB,D :|2 BGE DB,G |]
